SF_Symbols/star.slash.fill.svg

<?xml version="1.0" encoding="UTF-8"?>
<svg xmlns="http://www.w3.org/2000/svg" xmlns:xlink="http://www.w3.org/1999/xlink" width="24" height="24" viewBox="0 0 24 24" version="1.1">
<g id="surface1">
<path style=" stroke:none;fill-rule:nonzero;fill:rgb(100%,100%,100%);fill-opacity:1;" d="M 9.425781 6.25 L 17.5 14.300781 L 22.769531 10.511719 C 23.097656 10.28125 23.324219 10.046875 23.449219 9.800781 C 23.574219 9.558594 23.59375 9.308594 23.511719 9.050781 C 23.425781 8.800781 23.265625 8.613281 23.019531 8.488281 C 22.777344 8.363281 22.453125 8.304688 22.050781 8.3125 L 15.230469 8.355469 L 13.15625 1.84375 C 13.03125 1.460938 12.871094 1.171875 12.675781 0.980469 C 12.488281 0.785156 12.261719 0.6875 11.988281 0.6875 C 11.726562 0.6875 11.496094 0.785156 11.300781 0.980469 C 11.113281 1.171875 10.957031 1.460938 10.832031 1.84375 Z M 5.699219 8.332031 L 1.9375 8.3125 C 1.535156 8.304688 1.210938 8.363281 0.96875 8.488281 C 0.726562 8.613281 0.5625 8.800781 0.480469 9.050781 C 0.394531 9.308594 0.417969 9.558594 0.542969 9.800781 C 0.667969 10.046875 0.890625 10.28125 1.21875 10.511719 L 6.78125 14.511719 L 4.605469 20.988281 C 4.472656 21.363281 4.425781 21.6875 4.46875 21.957031 C 4.515625 22.230469 4.648438 22.445312 4.863281 22.605469 C 5.078125 22.769531 5.324219 22.828125 5.59375 22.769531 C 5.863281 22.722656 6.160156 22.582031 6.480469 22.355469 L 11.988281 18.300781 L 17.511719 22.355469 C 17.828125 22.582031 18.125 22.722656 18.394531 22.769531 C 18.667969 22.828125 18.910156 22.769531 19.125 22.605469 C 19.179688 22.5625 19.226562 22.515625 19.261719 22.457031 C 19.296875 22.410156 19.320312 22.339844 19.332031 22.25 C 19.347656 22.167969 19.347656 22.054688 19.332031 21.917969 Z M 21 21.824219 C 21.160156 21.976562 21.351562 22.050781 21.574219 22.050781 C 21.796875 22.050781 21.984375 21.976562 22.136719 21.824219 C 22.289062 21.664062 22.363281 21.472656 22.363281 21.25 C 22.371094 21.027344 22.296875 20.839844 22.136719 20.6875 L 5.269531 3.875 C 5.109375 3.714844 4.921875 3.636719 4.699219 3.636719 C 4.476562 3.636719 4.285156 3.714844 4.125 3.875 C 3.972656 4.027344 3.894531 4.21875 3.894531 4.449219 C 3.894531 4.671875 3.972656 4.859375 4.125 5.011719 Z M 21 21.824219 "/>
</g>
</svg>

<svg xmlns="http://www.w3.org/2000/svg" width="24" height="24"><path style="stroke:none;fill-rule:nonzero;fill:#fff;fill-opacity:1" d="M9.426 6.25 17.5 14.3l5.27-3.788c.328-.23.554-.465.68-.711a.96.96 0 0 0-.43-1.313c-.243-.125-.567-.183-.97-.175l-6.82.042-2.074-6.511c-.125-.383-.285-.672-.48-.864a.912.912 0 0 0-.688-.292.955.955 0 0 0-.687.292c-.188.192-.344.48-.469.864ZM5.699 8.332l-3.761-.02c-.403-.007-.727.051-.97.176a.94.94 0 0 0-.488.563.932.932 0 0 0 .063.75c.125.246.348.48.676.71l5.562 4-2.176 6.477c-.132.375-.18.7-.136.969.047.273.18.488.394.648.215.165.461.223.73.165.27-.047.567-.188.887-.415l5.508-4.054 5.524 4.054c.316.227.613.368.883.415.273.058.515 0 .73-.165a.497.497 0 0 0 .137-.148.437.437 0 0 0 .07-.207c.016-.11.016-.223 0-.332ZM21 21.824c.16.153.352.227.574.227.223 0 .41-.074.563-.227a.802.802 0 0 0 .226-.574.713.713 0 0 0-.226-.563L5.27 3.875a.767.767 0 0 0-.57-.238.782.782 0 0 0-.575.238.79.79 0 0 0-.23.574c0 .223.078.41.23.563Zm0 0"/></svg>
